X: 357
T: Shiquan ren
%%abc-version 2.0
%%abcx-abcm2ps-target-version 5.9.1 (29 Sep 2008)
%%abc-creator hum2abc beta
%%abcx-conversion-date 2013/10/02 07:52:30
%%abc-edited-by Helmut Schaffrath
%%humdrum-veritas 1661762491
%%humdrum-veritas-data 318524948
%%continueall 1
%%barnumbers 0
L: 1/8
M: 2/4
K: A
c' e' e' f [I:setbarnb 1]| 
a4 | 
e' f' e' c' | 
b4 | 
b2e' c' | 
b c' b a | 
f b a f | 
e4 | 
c' g f e | 
f2c' b | 
a f e c | 
B4 | 
b f' e' c' | 
e' c' b c' | 
e' c' e' f' | 
c'3b | 
a f e c | 
B4 |]  



